resources/material/nord.svg

<svg xmlns="http://www.w3.org/2000/svg" width="16" height="16" viewBox="0 0 48 48">
    <path fill="context-fill" fill-opacity="context-fill-opacity"
        d="M4.5680413,42.4761905 C1.6946114,38.479449 0,33.5618342 0,28.2443913 C0,14.8545837 10.745166,4 24,4 C37.254834,4 48,14.8545837 48,28.2443913 C48,33.5617996 46.3054107,38.4793849 43.4320149,42.4761124 L31.9048439,23.5666868 L30.7916881,25.4652778 L31.921073,30.7455775 L24,17.0546723 L19.100013,25.4120564 L20.2407813,30.7455775 L16.0888085,23.5775131 L4.5680413,42.4761905 Z" />
</svg>

<svg width="16" height="16" viewBox="0 0 48 48">
  <path fill="#f4f4f7" fill-opacity="context-fill-opacity" d="M4.568 42.476A24.3 24.3 0 0 1 0 28.244C0 14.854 10.745 4 24 4s24 10.855 24 24.244a24.3 24.3 0 0 1-4.568 14.232l-11.527-18.91-1.113 1.9 1.13 5.28L24 17.055l-4.9 8.357 1.14 5.334-4.151-7.168L4.568 42.476Z"/>
</svg>
